X:6049
T:Gan Ainm (The Heather Breeze)
R:Reel
S:Paddy Canny, Clare (fiddle)
Z:Bernie Stocks
N:As played
H:Slides on long G's and F's in part one, and long 'g3's in part 2
D:Home tape of unknown provenance
M:4/4
K:C
|: G2~G2 dGBG | F2~F2 cFDF | G2~G2 dGFG | (3.F.F.G Ac fcAF |
G2~G2 dGBG | F2~F2 cFAG | {A}GF (3.D.D.E FGAc |1 fcAF GFDF :|2 fcAF GA_Bc ||
|: dg{a}g^f g3a | (3.b.a.g {a}g^f dcAc | df{a}fe {a}fefg | (3.a.g.^f g^f dcAc |
dg{a}g^f g3a | ba (3.g.g.^f gfde | ~f2af g^fdc |1 (3.B.c.d A^F GA_Bc :|2 (3.B.c.d A^F G=FDF ||
